icon-themes/breeze_svg/cmd/sc_symbolshapes.puzzle.svg

<svg viewBox="0 0 16 16" xmlns="http://www.w3.org/2000/svg">/&gt;<path d="m5.0957031 2.0039062c.0233.2104501.0978313.9594813.1445313 1.8945313.0269.53746.0437375 1.1181544.0234375 1.5839844-.0101.23288-.0420657.4250893-.0722657.5996093-.0301999.1745301-.0535406.3109232-.1191406.4082032-.11101.16493-.20427.27493-.3125.3125-.10823.0382-.20799-.0088282-.3125-.0488282-.20901-.0854-.4753219-.2244468-.9824218-.2167968-.50653.008-.8674988.1728137-1.1054688.4335937-.23797.26086-.359195.62857-.359375 1.03125.00018.40276.121405.7469525.359375 1.0078125.23797.26085.5989388.4239107 1.1054688.4316406.5070999.0080001.7734118-.1313768.9824218-.2167968.10451-.0413.20427-.084475.3125-.046875.10823.0382.20149.1456968.3125.3105468.0656.0974.0889407.2336832.1191406.4082032.0302.1744596.0621657.3920496.0722657.6249996.0203.46591.0035625 1.021134-.0234375 1.558594-.0475.95019-.1231613 1.727842-.1445313 1.919922.13042-.00045.2665356-.018238.3847657-.023438.2288399-.009999.4351293-.043765.5996093-.072265.16448-.0277.2741775-.054603.3359375-.095703.1534-.10327.2206344-.183455.2402344-.240235.0196-.0562.0154625-.121696-.0234375-.216797-.0778-.1902-.2485444-.492369-.2402344-1.03125.008-.539639.1843056-.930868.4785157-1.199218.29421-.26828.6961262-.407973 1.1289062-.408203.43278.00023.8346963.139923 1.1289062.408203.2942101.26835.4701957.659579.4785157 1.199218.008.53888-.1624644.84105-.2402344 1.03125-.0389.095101-.0430375.159947-.0234375.216797.0196.0562.0868344.136965.2402344.240235.0618.042.1714575.067303.3359375.095703.1644801.0285.3707691.062465.5996091.072265.11823.007.254346.022638.384766.023438-.0214-.19208-.097031-.969732-.144531-1.919922-.0268-.53746-.043738-1.092684-.023438-1.558594.0101-.23295.042066-.45054.072266-.6249996.0302-.17452.05354-.3108531.11914-.4082032.11102-.16485.20428-.2728968.3125-.3105468.10823-.0375.208.005875.3125.046875.20902.0854.475332.2244469.982422.2167968.50653-.0069999.867499-.1707906 1.105469-.4316406.23797-.26086.359195-.6050525.359375-1.0078125-.00018-.40268-.121405-.77039-.359375-1.03125-.23797-.26078-.598939-.4258737-1.105469-.4335937-.50709-.008-.773402.1313769-.982422.2167968-.1045.0405-.20427.0864282-.3125.0488282-.10822-.0383-.20148-.14757-.3125-.3125-.0656-.0973-.08894-.2336731-.11914-.4082032-.0302-.17452-.062166-.3667293-.072266-.5996093-.0203-.46583-.003562-1.0465244.023438-1.5839844.0467-.93505.121241-1.6840813.144531-1.8945313-.13028.0004501-.266646-.008-.384766 0-.22884.01-.435129.0437657-.5996091.0722657-.16448.0277-.2741675.0546031-.3359375.0957031-.1534.10327-.2206244.1833844-.2402344.2402344-.0196.0562-.0154625.1197437.0234375.2148437.0778.19028.2485444.49214.2402344 1.03125-.008.53941-.1843056.9328919-.4785157 1.2011719-.29421.26835-.6961262.40602-1.1289062.40625-.43278-.00023-.8346963-.1379-1.1289062-.40625-.2942101-.26828-.4701957-.6617619-.4785157-1.2011719-.008-.53911.1624744-.84097.2402344-1.03125.0389-.0951.0430375-.1588137.0234375-.2148437-.0196-.0562-.0868344-.1369644-.2402344-.2402344-.0618-.042-.1714575-.0673031-.3359375-.0957031-.16448-.0278-.3707693-.0625657-.5996093-.0722657-.1181101-.008-.2544757.0007501-.3847657 0z" fill="#4d4d4d"/></svg>

<svg xmlns="http://www.w3.org/2000/svg" viewBox="0 0 16 16">
     />
 <path 
     style="fill:#4d4d4d" 
     d="M 5.0957031 2.0039062 C 5.1190031 2.2143563 5.1935344 2.9633875 5.2402344 3.8984375 C 5.2671344 4.4358975 5.2839719 5.0165919 5.2636719 5.4824219 C 5.2535719 5.7153019 5.2216062 5.9075112 5.1914062 6.0820312 C 5.1612063 6.2565613 5.1378656 6.3929544 5.0722656 6.4902344 C 4.9612556 6.6551644 4.8679956 6.7651644 4.7597656 6.8027344 C 4.6515356 6.8409344 4.5517756 6.7939062 4.4472656 6.7539062 C 4.2382556 6.6685062 3.9719437 6.5294594 3.4648438 6.5371094 C 2.9583138 6.5451094 2.597345 6.7099231 2.359375 6.9707031 C 2.121405 7.2315631 2.00018 7.5992731 2 8.0019531 C 2.00018 8.4047131 2.121405 8.7489056 2.359375 9.0097656 C 2.597345 9.2706156 2.9583138 9.4336763 3.4648438 9.4414062 C 3.9719437 9.4494063 4.2382556 9.3100294 4.4472656 9.2246094 C 4.5517756 9.1833094 4.6515356 9.1401344 4.7597656 9.1777344 C 4.8679956 9.2159344 4.9612556 9.3234312 5.0722656 9.4882812 C 5.1378656 9.5856812 5.1612063 9.7219644 5.1914062 9.8964844 C 5.2216062 10.070944 5.2535719 10.288534 5.2636719 10.521484 C 5.2839719 10.987394 5.2672344 11.542618 5.2402344 12.080078 C 5.1927344 13.030268 5.1170731 13.80792 5.0957031 14 C 5.2261231 13.99955 5.3622387 13.981762 5.4804688 13.976562 C 5.7093087 13.966563 5.9155981 13.932797 6.0800781 13.904297 C 6.2445581 13.876597 6.3542556 13.849694 6.4160156 13.808594 C 6.5694156 13.705324 6.63665 13.625139 6.65625 13.568359 C 6.67585 13.512159 6.6717125 13.446663 6.6328125 13.351562 C 6.5550125 13.161362 6.3842681 12.859193 6.3925781 12.320312 C 6.4005781 11.780673 6.5768837 11.389444 6.8710938 11.121094 C 7.1653038 10.852814 7.56722 10.713121 8 10.712891 C 8.43278 10.713121 8.8346963 10.852814 9.1289062 11.121094 C 9.4231163 11.389444 9.5991019 11.780673 9.6074219 12.320312 C 9.6154219 12.859192 9.4449575 13.161362 9.3671875 13.351562 C 9.3282875 13.446663 9.32415 13.511509 9.34375 13.568359 C 9.36335 13.624559 9.4305844 13.705324 9.5839844 13.808594 C 9.6457844 13.850594 9.7554419 13.875897 9.9199219 13.904297 C 10.084402 13.932797 10.290691 13.966762 10.519531 13.976562 C 10.637761 13.983562 10.773877 13.9992 10.904297 14 C 10.882897 13.80792 10.807266 13.030268 10.759766 12.080078 C 10.732966 11.542618 10.716028 10.987394 10.736328 10.521484 C 10.746428 10.288534 10.778394 10.070944 10.808594 9.8964844 C 10.838794 9.7219644 10.862134 9.5856313 10.927734 9.4882812 C 11.038754 9.3234312 11.132014 9.2153844 11.240234 9.1777344 C 11.348464 9.1402344 11.448234 9.1836094 11.552734 9.2246094 C 11.761754 9.3100094 12.028066 9.4490563 12.535156 9.4414062 C 13.041686 9.4344063 13.402655 9.2706156 13.640625 9.0097656 C 13.878595 8.7489056 13.99982 8.4047131 14 8.0019531 C 13.99982 7.5992731 13.878595 7.2315631 13.640625 6.9707031 C 13.402655 6.7099231 13.041686 6.5448294 12.535156 6.5371094 C 12.028066 6.5291094 11.761754 6.6684863 11.552734 6.7539062 C 11.448234 6.7944062 11.348464 6.8403344 11.240234 6.8027344 C 11.132014 6.7644344 11.038754 6.6551644 10.927734 6.4902344 C 10.862134 6.3929344 10.838794 6.2565613 10.808594 6.0820312 C 10.778394 5.9075112 10.746428 5.7153019 10.736328 5.4824219 C 10.716028 5.0165919 10.732766 4.4358975 10.759766 3.8984375 C 10.806466 2.9633875 10.881007 2.2143562 10.904297 2.0039062 C 10.774017 2.0043563 10.637651 1.9959062 10.519531 2.0039062 C 10.290691 2.0139062 10.084402 2.0476719 9.9199219 2.0761719 C 9.7554419 2.1038719 9.6457544 2.130775 9.5839844 2.171875 C 9.4305844 2.275145 9.36336 2.3552594 9.34375 2.4121094 C 9.32415 2.4683094 9.3282875 2.5318531 9.3671875 2.6269531 C 9.4449875 2.8172331 9.6157319 3.1190931 9.6074219 3.6582031 C 9.5994219 4.1976131 9.4231163 4.591095 9.1289062 4.859375 C 8.8346962 5.127725 8.43278 5.265395 8 5.265625 C 7.56722 5.265395 7.1653037 5.127725 6.8710938 4.859375 C 6.5768837 4.591095 6.4008981 4.1976131 6.3925781 3.6582031 C 6.3845781 3.1190931 6.5550525 2.8172331 6.6328125 2.6269531 C 6.6717125 2.5318531 6.67585 2.4681394 6.65625 2.4121094 C 6.63665 2.3559094 6.5694156 2.275145 6.4160156 2.171875 C 6.3542156 2.129875 6.2445581 2.1045719 6.0800781 2.0761719 C 5.9155981 2.0483719 5.7093088 2.0136062 5.4804688 2.0039062 C 5.3623587 1.9959062 5.2259931 2.0046563 5.0957031 2.0039062 z "
     />
 </svg>
